X:151
T:Waltzes #1. Le4.151
Q:3/4=50
L:1/4
B:L.Leadley MS#4 c1850
Z:vmp.Mike Hicken 2016 www.village-music-project.org.uk
M:3/4
K:G
d|(dg).g|(^ga).d|(da).a|(^ab).b|(b=a).a|agf|efe|dzd|(dg).g|
(^ge).e|(ea)a|(^af).f|(fb).b|bag|f(b>a)|gz :|
|: g|f3-|fga|gb e'|d'3-|d'c'b|aba|gBe|dzg|
f3-|fga|gbe'|d'3|!f!d'c'b|aba|g(e>d)|gz:|

